assets/img/braze_icons/grid-01.svg

<svg fill="none" height="24" viewBox="0 0 24 24" width="24" xmlns="http://www.w3.org/2000/svg"><g clip-rule="evenodd" fill="#801ed7" fill-rule="evenodd"><path d="m4.56811 2c1.28794.00016 2.57839.00016 3.86379 0 .25239-.00003.49818-.00006.70634.01695.22859.01868.49832.06274.76975.20104.37631.19175.68231.49771.87401.87403.1383.27143.1824.54116.2011.76976.017.20816.0169.45396.0169.70635v3.86376c0 .25238.0001.49818-.0169.70635-.0187.22859-.0628.49832-.2011.76975-.1917.37631-.4977.68231-.87401.87401-.27143.1383-.54116.1824-.76975.2011-.20817.017-.45397.0169-.70635.0169h-3.86377c-.25238 0-.49818.0001-.70634-.0169-.2286-.0187-.49833-.0628-.76976-.2011-.37632-.1917-.68228-.4977-.87403-.87401-.1383-.27143-.18236-.54116-.20104-.76975-.01701-.20816-.01698-.45395-.01695-.70634 0-.01062.00001-.02125.00001-.03189v-3.8c0-.01065-.00001-.02128-.00001-.0319-.00003-.25239-.00006-.49818.01695-.70633.01868-.2286.06274-.49833.20104-.76976.19175-.37632.49771-.68228.87403-.87403.27143-.1383.54116-.18236.76976-.20104.20815-.01701.45394-.01698.70633-.01695z"/><path d="m4.56811 13c1.28794.0002 2.57839.0002 3.86379 0 .25239 0 .49818-.0001.70634.017.22859.0186.49832.0627.76975.201.37631.1917.68231.4977.87401.874.1383.2714.1824.5412.2011.7698.017.2081.0169.4539.0169.7063v3.8638c0 .2524.0001.4982-.0169.7063-.0187.2286-.0628.4984-.2011.7698-.1917.3763-.4977.6823-.87401.874-.27143.1383-.54116.1824-.76975.2011-.20817.017-.45397.0169-.70635.0169h-3.86377c-.25238 0-.49818.0001-.70634-.0169-.2286-.0187-.49833-.0628-.76976-.2011-.37632-.1917-.68228-.4977-.87403-.874-.1383-.2714-.18236-.5412-.20104-.7698-.01701-.2081-.01698-.4539-.01695-.7063 0-.0106.00001-.0213.00001-.0319v-3.8c0-.0106-.00001-.0213-.00001-.0319-.00003-.2524-.00006-.4982.01695-.7063.01868-.2286.06274-.4984.20104-.7698.19175-.3763.49771-.6823.87403-.874.27143-.1383.54116-.1824.76976-.201.20815-.0171.45394-.017.70633-.017z"/><path d="m15.5681 2c1.2879.00016 2.5784.00016 3.8638 0 .2524-.00003.4982-.00006.7063.01695.2286.01868.4984.06274.7698.20104.3763.19175.6823.49771.874.87403.1383.27143.1824.54116.2011.76976.017.20816.0169.45396.0169.70635v3.86376c0 .25238.0001.49818-.0169.70635-.0187.22859-.0628.49832-.2011.76975-.1917.37631-.4977.68231-.874.87401-.2714.1383-.5412.1824-.7698.2011-.2081.017-.4539.0169-.7063.0169h-3.8638c-.2524 0-.4982.0001-.7063-.0169-.2286-.0187-.4984-.0628-.7698-.2011-.3763-.1917-.6823-.4977-.874-.87401-.1383-.27143-.1824-.54116-.201-.76975-.0171-.20816-.017-.45395-.017-.70634 0-.01062 0-.02125 0-.03189v-3.8c0-.01065 0-.02128 0-.0319 0-.25239-.0001-.49818.017-.70633.0186-.2286.0627-.49833.201-.76976.1917-.37632.4977-.68228.874-.87403.2714-.1383.5412-.18236.7698-.20104.2081-.01701.4539-.01698.7063-.01695z"/><path d="m15.5681 13c1.2879.0002 2.5784.0002 3.8638 0 .2524 0 .4982-.0001.7063.017.2286.0186.4984.0627.7698.201.3763.1917.6823.4977.874.874.1383.2714.1824.5412.2011.7698.017.2081.0169.4539.0169.7063v3.8638c0 .2524.0001.4982-.0169.7063-.0187.2286-.0628.4984-.2011.7698-.1917.3763-.4977.6823-.874.874-.2714.1383-.5412.1824-.7698.2011-.2081.017-.4539.0169-.7063.0169h-3.8638c-.2524 0-.4982.0001-.7063-.0169-.2286-.0187-.4984-.0628-.7698-.2011-.3763-.1917-.6823-.4977-.874-.874-.1383-.2714-.1824-.5412-.201-.7698-.0171-.2081-.017-.4539-.017-.7063 0-.0106 0-.0213 0-.0319v-3.8c0-.0106 0-.0213 0-.0319 0-.2524-.0001-.4982.017-.7063.0186-.2286.0627-.4984.201-.7698.1917-.3763.4977-.6823.874-.874.2714-.1383.5412-.1824.7698-.201.2081-.0171.4539-.017.7063-.017z"/></g></svg>

<svg width="24" height="24" viewBox="0 0 24 24" fill="none" xmlns="http://www.w3.org/2000/svg">
<path fill-rule="evenodd" clip-rule="evenodd" d="M4.56811 2C5.85605 2.00016 7.1465 2.00016 8.4319 2C8.68429 1.99997 8.93008 1.99994 9.13824 2.01695C9.36683 2.03563 9.63656 2.07969 9.90799 2.21799C10.2843 2.40974 10.5903 2.7157 10.782 3.09202C10.9203 3.36345 10.9644 3.63318 10.9831 3.86178C11.0001 4.06994 11 4.31574 11 4.56813V8.43189C11 8.68427 11.0001 8.93007 10.9831 9.13824C10.9644 9.36683 10.9203 9.63656 10.782 9.90799C10.5903 10.2843 10.2843 10.5903 9.90799 10.782C9.63656 10.9203 9.36683 10.9644 9.13824 10.9831C8.93007 11.0001 8.68427 11 8.43189 11H4.56812C4.31574 11 4.06994 11.0001 3.86178 10.9831C3.63318 10.9644 3.36345 10.9203 3.09202 10.782C2.7157 10.5903 2.40974 10.2843 2.21799 9.90799C2.07969 9.63656 2.03563 9.36683 2.01695 9.13824C1.99994 8.93008 1.99997 8.68429 2 8.4319C2 8.42128 2.00001 8.41065 2.00001 8.40001V4.60001C2.00001 4.58936 2 4.57873 2 4.56811C1.99997 4.31572 1.99994 4.06993 2.01695 3.86178C2.03563 3.63318 2.07969 3.36345 2.21799 3.09202C2.40974 2.7157 2.7157 2.40974 3.09202 2.21799C3.36345 2.07969 3.63318 2.03563 3.86178 2.01695C4.06993 1.99994 4.31572 1.99997 4.56811 2Z" fill="#801ED7"/>
<path fill-rule="evenodd" clip-rule="evenodd" d="M4.56811 13C5.85605 13.0002 7.1465 13.0002 8.4319 13C8.68429 13 8.93008 12.9999 9.13824 13.017C9.36683 13.0356 9.63656 13.0797 9.90799 13.218C10.2843 13.4097 10.5903 13.7157 10.782 14.092C10.9203 14.3634 10.9644 14.6332 10.9831 14.8618C11.0001 15.0699 11 15.3157 11 15.5681V19.4319C11 19.6843 11.0001 19.9301 10.9831 20.1382C10.9644 20.3668 10.9203 20.6366 10.782 20.908C10.5903 21.2843 10.2843 21.5903 9.90799 21.782C9.63656 21.9203 9.36683 21.9644 9.13824 21.9831C8.93007 22.0001 8.68427 22 8.43189 22H4.56812C4.31574 22 4.06994 22.0001 3.86178 21.9831C3.63318 21.9644 3.36345 21.9203 3.09202 21.782C2.7157 21.5903 2.40974 21.2843 2.21799 20.908C2.07969 20.6366 2.03563 20.3668 2.01695 20.1382C1.99994 19.9301 1.99997 19.6843 2 19.4319C2 19.4213 2.00001 19.4106 2.00001 19.4V15.6C2.00001 15.5894 2 15.5787 2 15.5681C1.99997 15.3157 1.99994 15.0699 2.01695 14.8618C2.03563 14.6332 2.07969 14.3634 2.21799 14.092C2.40974 13.7157 2.7157 13.4097 3.09202 13.218C3.36345 13.0797 3.63318 13.0356 3.86178 13.017C4.06993 12.9999 4.31572 13 4.56811 13Z" fill="#801ED7"/>
<path fill-rule="evenodd" clip-rule="evenodd" d="M15.5681 2C16.856 2.00016 18.1465 2.00016 19.4319 2C19.6843 1.99997 19.9301 1.99994 20.1382 2.01695C20.3668 2.03563 20.6366 2.07969 20.908 2.21799C21.2843 2.40974 21.5903 2.7157 21.782 3.09202C21.9203 3.36345 21.9644 3.63318 21.9831 3.86178C22.0001 4.06994 22 4.31574 22 4.56813V8.43189C22 8.68427 22.0001 8.93007 21.9831 9.13824C21.9644 9.36683 21.9203 9.63656 21.782 9.90799C21.5903 10.2843 21.2843 10.5903 20.908 10.782C20.6366 10.9203 20.3668 10.9644 20.1382 10.9831C19.9301 11.0001 19.6843 11 19.4319 11H15.5681C15.3157 11 15.0699 11.0001 14.8618 10.9831C14.6332 10.9644 14.3634 10.9203 14.092 10.782C13.7157 10.5903 13.4097 10.2843 13.218 9.90799C13.0797 9.63656 13.0356 9.36683 13.017 9.13824C12.9999 8.93008 13 8.68429 13 8.4319C13 8.42128 13 8.41065 13 8.40001V4.60001C13 4.58936 13 4.57873 13 4.56811C13 4.31572 12.9999 4.06993 13.017 3.86178C13.0356 3.63318 13.0797 3.36345 13.218 3.09202C13.4097 2.7157 13.7157 2.40974 14.092 2.21799C14.3634 2.07969 14.6332 2.03563 14.8618 2.01695C15.0699 1.99994 15.3157 1.99997 15.5681 2Z" fill="#801ED7"/>
<path fill-rule="evenodd" clip-rule="evenodd" d="M15.5681 13C16.856 13.0002 18.1465 13.0002 19.4319 13C19.6843 13 19.9301 12.9999 20.1382 13.017C20.3668 13.0356 20.6366 13.0797 20.908 13.218C21.2843 13.4097 21.5903 13.7157 21.782 14.092C21.9203 14.3634 21.9644 14.6332 21.9831 14.8618C22.0001 15.0699 22 15.3157 22 15.5681V19.4319C22 19.6843 22.0001 19.9301 21.9831 20.1382C21.9644 20.3668 21.9203 20.6366 21.782 20.908C21.5903 21.2843 21.2843 21.5903 20.908 21.782C20.6366 21.9203 20.3668 21.9644 20.1382 21.9831C19.9301 22.0001 19.6843 22 19.4319 22H15.5681C15.3157 22 15.0699 22.0001 14.8618 21.9831C14.6332 21.9644 14.3634 21.9203 14.092 21.782C13.7157 21.5903 13.4097 21.2843 13.218 20.908C13.0797 20.6366 13.0356 20.3668 13.017 20.1382C12.9999 19.9301 13 19.6843 13 19.4319C13 19.4213 13 19.4106 13 19.4V15.6C13 15.5894 13 15.5787 13 15.5681C13 15.3157 12.9999 15.0699 13.017 14.8618C13.0356 14.6332 13.0797 14.3634 13.218 14.092C13.4097 13.7157 13.7157 13.4097 14.092 13.218C14.3634 13.0797 14.6332 13.0356 14.8618 13.017C15.0699 12.9999 15.3157 13 15.5681 13Z" fill="#801ED7"/>
</svg>
